build/assets/img/stage-boxes/stage-box.svg

<svg width="124" height="120" viewBox="0 0 124 120" fill="none" xmlns="http://www.w3.org/2000/svg">
<g clip-path="url(#clip0)">
<path d="M23.5108 2.95783L123.971 3.30582L122.955 91.7544L23.3076 91.9283L23.5108 2.95783Z" fill="#102E5B"/>
<path d="M23.6854 2.89994L0.0580524 31.1455L0 119.275L23.6854 91.6965V2.89994Z" fill="#0A2D49"/>
<path d="M100.286 119.855L0 119.971L0.0580524 31.1455L99.7631 30.9715L100.286 119.855Z" fill="#102E5B"/>
<path d="M100.285 119.855L123.971 91.5514V3.30584L100.372 31.1744L100.285 119.855Z" fill="#0A2D49"/>
<path d="M100.372 31.1744L123.971 3.30584V92.2184L100.285 119.855L100.372 31.1744Z" fill="#053866"/>
<path d="M100.372 31.1744L123.971 3.30584V92.1894L100.285 119.855L100.372 31.1744Z" fill="#053866"/>
<path d="M118.078 10.2657L123.97 3.30584V25.7805L118.078 32.7403V10.2657Z" fill="#053866"/>
<path d="M120.111 22.6777C118.862 19.9807 118.253 16.4718 118.253 10.2659L118.979 9.36689C118.979 14.8478 119.646 18.5887 120.72 20.8797C121.62 22.7647 122.781 23.0547 123.971 21.6047L123.942 23.9827C123.333 24.7076 122.926 24.8816 122.375 24.8816C121.62 24.8816 120.749 24.0407 120.111 22.6777Z" fill="#B9D5FD"/>
<path d="M112.187 17.2255L118.079 10.2657V32.7403L112.187 39.7002V17.2255Z" fill="#0E2951"/>
<path d="M106.294 24.1855L112.187 17.2256V39.7003L106.294 46.6311V24.1855Z" fill="#709FDC"/>
<path d="M100.372 31.1743L106.293 24.1855V46.6311L100.401 53.504L100.372 31.1743Z" fill="#55A2E0"/>
<path d="M118.078 32.7403L123.97 25.7804V47.907L118.078 54.8669V32.7403Z" fill="#B9D5FD"/>
<path d="M112.187 39.7003L118.079 32.7404V54.867L112.187 61.8269V39.7003Z" fill="#274684"/>
<path d="M106.294 46.631L112.187 39.7002V61.8268L106.294 68.7867V46.631Z" fill="#3D95D1"/>
<path d="M100.401 53.5042L106.294 46.6313V68.7869L100.401 75.6308V53.5042Z" fill="#B9D5FD"/>
<path d="M112.187 61.8269L118.079 54.8671V77.0227L112.187 83.9826V61.8269Z" fill="#B9D5FD"/>
<path d="M106.294 68.7868L112.187 61.8269V83.9826L106.294 90.9424V68.7868Z" fill="#0E2951"/>
<path d="M100.401 75.6306L106.294 68.7867V90.9424L100.517 97.7862L100.401 75.6306Z" fill="#709FDC"/>
<path d="M118.078 77.0227L123.97 70.0338V92.1895L118.078 99.1493V77.0227Z" fill="#6780B3"/>
<path d="M112.187 83.9827L118.079 77.0228V99.1494L112.187 106.109V83.9827Z" fill="#053866"/>
<path d="M106.294 90.9427L112.187 83.9828V106.109L106.294 113.069V90.9427Z" fill="#B9D5FD"/>
<path d="M100.518 97.7865L106.294 90.9426V113.069L100.285 119.855L100.518 97.7865Z" fill="#3D95D1"/>
<path d="M121.068 18.7047C120.082 16.6167 119.559 13.7168 119.559 8.96085L120.285 8.06187C120.285 11.9188 120.72 14.7028 121.591 16.5007C122.113 17.5737 123.158 17.9217 124 16.9067V19.5747C123.536 20.1257 123.245 20.2997 122.81 20.2997C122.142 20.2997 121.562 19.7487 121.068 18.7047Z" fill="#3D95D1"/>
<path d="M122.026 14.0648C121.358 12.6438 120.981 10.4399 120.981 7.22091L121.707 6.32193C121.707 8.67089 121.823 9.77287 122.287 11.1938C122.723 12.5278 123.477 12.6728 124 12.0928V14.7608C123.68 15.1378 123.506 15.2248 123.216 15.2248C122.752 15.1958 122.345 14.7898 122.026 14.0648Z" fill="#3376B3"/>
<path d="M122.868 9.39593C122.462 8.52594 122.259 7.24997 122.259 5.423L123.101 4.52401C122.955 5.85799 122.955 6.72797 123.246 7.19197C123.345 7.28265 123.474 7.33296 123.609 7.33296C123.743 7.33296 123.872 7.28265 123.971 7.19197V9.85992C123.797 10.0919 123.768 10.0919 123.594 10.0919C123.333 10.0629 123.072 9.83092 122.868 9.39593Z" fill="#709FDC"/>
<path d="M100.518 91.9286L104.668 86.9696V54.3742L100.518 59.2751V56.2011L105.539 50.5462V88.8256L100.547 94.6835L100.518 91.9286Z" fill="#274684"/>
<path d="M100.518 91.9284L104.668 86.9695V70.1788L105.539 69.3088V88.8255L100.518 95.0314V91.9284Z" fill="#0E2951"/>
<path d="M100.46 86.6504L103.275 83.3445V60.9278L100.518 64.0018V61.1308L104.117 57.0999V84.7074L100.547 88.9414L100.46 86.6504Z" fill="#274684"/>
<path d="M100.518 80.9375L101.795 79.1975V68.7577L100.518 70.3237V67.2207L102.666 64.9298V81.0535L100.634 83.4605L100.518 80.9375Z" fill="#274684"/>
<path d="M100.46 80.6765L101.737 79.3715V73.6586L102.579 72.7596V81.2275L100.518 83.6055L100.46 80.6765Z" fill="#0E2951"/>
<path d="M100.518 86.4475L103.275 83.3446V71.8607L104.117 70.9618V85.1425L100.518 89.5505V86.4475Z" fill="#0E2951"/>
<path d="M119.501 80.6475L123.971 75.3696V92.1893L119.501 97.4962V80.6475Z" fill="#053866"/>
<path d="M121.01 84.6205L123.971 81.1116V92.1894L121.01 95.6694V84.6205Z" fill="#709FDC"/>
<path d="M110.009 20.1838L112.157 31.5806L108.442 43.9924L106.323 32.5956L110.009 20.1838Z" fill="#0E2951"/>
<path d="M109.632 26.0125L110.735 31.8415L108.82 38.1633L107.746 32.3634L109.632 26.0125Z" fill="#6780B3"/>
<path d="M106.294 95.3505L112.187 88.3906V106.109L106.294 113.069V95.3505Z" fill="#3D95D1"/>
<path d="M106.294 100.222L112.187 93.2626V106.109L106.294 113.069V100.222Z" fill="#6780B3"/>
<path d="M106.294 105.123L112.187 98.1343V106.109L106.294 113.069V105.123Z" fill="#053866"/>
<path d="M106.294 109.096L112.187 102.136V106.109L106.294 113.069V109.096Z" fill="#0E2951"/>
<path d="M112.709 57.1L117.556 50.3721L112.709 45.0652L117.556 38.3373L112.709 57.1Z" fill="#0E2951"/>
<path d="M123.245 26.6504L123.971 25.7804V47.907L123.245 48.806V26.6504Z" fill="#55A2E0"/>
<path d="M122.114 27.9846L122.839 27.1146V49.2412L122.114 50.1402V27.9846Z" fill="#55A2E0"/>
<path d="M118.397 32.4214L119.123 31.5225V53.6781L118.397 54.5481V32.4214Z" fill="#55A2E0"/>
<path d="M119.646 30.8264L120.488 29.9274V52.054L119.646 52.924V30.8264Z" fill="#55A2E0"/>
<path d="M120.981 29.3186L121.678 28.4196V50.5752L120.981 51.4452V29.3186Z" fill="#55A2E0"/>
<path d="M118.078 54.867L123.97 47.9071V70.0337L118.078 77.0226V54.867Z" fill="#0E2951"/>
<path d="M118.078 65.9447L121.01 62.4648V73.5426L118.078 77.0225V65.9447Z" fill="#55A2E0"/>
<path d="M121.01 51.3871L123.971 47.9071V58.9849L121.01 62.4649V51.3871Z" fill="#55A2E0"/>
<path d="M113.608 87.6654L116.627 84.0694V95.4662L113.608 99.0622V90.0723L116.076 87.1724V94.0453L114.189 96.2782V91.4643L115.495 89.8983V92.6533L114.74 93.5523" stroke="#3D95D1" stroke-miterlimit="10"/>
<path d="M104.523 113.069L101.127 97.8154L102.375 96.4234L105.946 111.764L104.523 113.069Z" fill="#003A79"/>
<path d="M102.579 114.838L100.78 117.071L103.74 95.0315L105.54 93.2626L102.579 114.838Z" fill="#003A79"/>
<path d="M110.068 68.7579L110.996 67.656V71.1939L110.068 72.2959V68.7579Z" fill="#B9D5FD"/>
<path d="M108.761 75.1378L109.69 74.0358V77.5737L108.761 78.7047V75.1378Z" fill="#B9D5FD"/>
<path d="M107.455 81.5755L108.413 80.4445V84.0114L107.455 85.1134V81.5755Z" fill="#B9D5FD"/>
<path d="M100.373 31.1743L0.0583496 31.1453L0.116402 119.855H100.286L100.373 31.1743Z" fill="#054270"/>
<path d="M100.286 119.855L0.0873758 119.942L0.0583496 31.1453L100.373 31.1743L100.286 119.855Z" fill="#053866"/>
<path d="M25.2231 97.7285L0.0864258 97.7575V75.6019L25.2231 75.5729V97.7285Z" fill="#F4F9FF"/>
<path d="M50.3315 97.7283H25.2239V75.5727L50.3315 75.5437V97.7283Z" fill="#274684"/>
<path d="M75.4099 97.6991L50.3313 97.7281V75.5435L75.4099 75.5145V97.6991Z" fill="#3D95D1"/>
<path d="M100.517 97.7861L75.4097 97.6991V75.5145L100.517 75.6015V97.7861Z" fill="#B9D5FD"/>
<path d="M50.3315 75.5437L25.2239 75.5727V53.3881L50.3315 53.3591V75.5437Z" fill="#B9D5FD"/>
<path d="M75.4099 75.5147L50.3313 75.5437V53.3591H75.4099V75.5147Z" fill="#0E2951"/>
<path d="M100.517 75.6017L75.4097 75.5147V53.3591L100.517 53.4171V75.6017Z" fill="#709FDC"/>
<path d="M50.3315 119.913H25.2239V97.7284H50.3315V119.913Z" fill="#0E2951"/>
<path d="M75.5418 119.884L50.3313 119.913V97.7282L75.5418 97.6992V119.884Z" fill="#709FDC"/>
<path d="M100.286 119.855L75.5842 119.884V97.6992L100.518 97.7862L100.286 119.855Z" fill="#6780B3"/>
<path d="M25.2241 53.388L0.0873758 53.417L0.0583496 31.1453L25.2241 31.2323V53.388Z" fill="#6780B3"/>
<path d="M50.3315 53.3593L25.2239 53.3883V31.2327L50.3315 31.2037V53.3593Z" fill="#053866"/>
<path d="M75.4099 53.3591H50.3313V31.2035L75.4099 31.1745V53.3591Z" fill="#B9D5FD"/>
<path d="M100.517 53.4171L75.4097 53.3591V31.1745H100.372L100.517 53.4171Z" fill="#3D95D1"/>
<path d="M78.6321 94.6835V56.3752L100.286 56.3462L99.8793 59.1881H82.2604V91.8416L100.518 91.9286V95.0315L78.6321 94.6835Z" fill="#274684"/>
<path d="M78.3997 56.3749L100.518 56.1719V59.2749L82.2601 59.1879V75.5436H78.6319L78.3997 56.3749Z" fill="#0E2951"/>
<path d="M84.6697 89.5506V62.1171L100.518 61.1311V63.8571L88.2689 64.06V86.3897L100.518 86.4477V89.5506H84.6697Z" fill="#274684"/>
<path d="M91.2007 83.5765V67.4527L100.46 67.3947L99.8795 70.2947L94.7999 70.2657V80.7345L100.518 80.6765V83.6055L91.2007 83.5765Z" fill="#274684"/>
<path d="M91.2007 67.453L100.518 67.221V70.3239L94.7999 70.2659V75.6308L91.2007 75.5728V67.453Z" fill="#0E2951"/>
<path d="M84.6697 61.2471L100.518 61.1311V64.0021L88.2689 64.06V75.5149H84.6697V61.2471Z" fill="#0E2951"/>
<path d="M12.6267 42.3101L0.0873758 42.3391L0.0583496 31.1453L12.6267 31.2323V42.3101Z" fill="#FF8098"/>
<path d="M59.5332 119.797L50.4189 105.877L66.1802 97.8155L75.3235 111.735L59.5332 119.797Z" fill="#0E2951"/>
<path d="M61.1588 114.432L56.5146 107.298L64.5839 103.18L69.1991 110.314L61.1588 114.432Z" fill="#6780B3"/>
<path d="M75.4099 48.9222L50.3313 48.9512V31.2035L75.4099 31.1745V48.9222Z" fill="#3D95D1"/>
<path d="M75.4099 44.0503L50.3313 44.0793V31.2035L75.4099 31.1745V44.0503Z" fill="#6780B3"/>
<path d="M75.4099 39.1784H50.3313V31.2035L75.4099 31.1745V39.1784Z" fill="#053866"/>
<path d="M75.4099 35.1764H50.3313V31.2035L75.4099 31.1745V35.1764Z" fill="#0E2951"/>
<path d="M48.8221 79.1687L26.7332 79.1977L48.8221 93.2334L26.7332 93.2624" fill="#0E2951"/>
<path d="M0.0583496 75.3698L3.6576 75.2538V97.8734L0.0583496 97.9894V75.3698Z" fill="#709FDC"/>
<path d="M4.78906 75.6597L8.41734 75.5437V97.6993L4.78906 97.8443V75.6597Z" fill="#709FDC"/>
<path d="M19.9699 75.6016L23.5691 75.4566L23.5111 97.6993L19.8538 97.8152L19.9699 75.6016Z" fill="#709FDC"/>
<path d="M14.8323 75.6305L18.4896 75.5145V97.6991L14.8323 97.8151V75.6305Z" fill="#709FDC"/>
<path d="M9.81055 75.6595L13.4679 75.5145V97.6991L9.81055 97.8441V75.6595Z" fill="#709FDC"/>
<path d="M25.2231 75.5729L0.0864258 75.6019V53.4173L25.2231 53.3883V75.5729Z" fill="#0E2951"/>
<path d="M25.2231 119.913L0.0864258 119.942V97.7574L25.2231 97.7284V119.913Z" fill="#053866"/>
<path d="M25.2236 64.4661L12.6262 64.4951V53.4173L25.2236 53.3883V64.4661Z" fill="#3D95D1"/>
<path d="M0.0583496 101.092V98.8883C13.4394 98.8883 24.7887 104.833 24.7887 119.942L21.77 119.884C21.77 109.705 12.1333 101.092 0.0583496 101.092Z" fill="#B9D5FD"/>
<path d="M0 105.877V103.209C10.0721 103.209 18.7219 109.183 18.7219 119.826L15.0936 119.942C15.0936 112.17 8.82397 105.877 0 105.877Z" fill="#3D95D1"/>
<path d="M0.0583496 110.865L0.116402 108.313C6.96659 108.313 12.1042 113.301 12.1042 119.942L8.73719 120C8.70816 115.186 5.39917 110.865 0.0583496 110.865Z" fill="#3376B3"/>
<path d="M0.0583496 116.201L0.116402 113.388C3.86078 113.388 6.67633 116.114 6.06678 119.826L3.04805 119.768C3.04805 117.651 2.40947 116.172 0.0583496 116.201Z" fill="#709FDC"/>
<path d="M47.6321 51.0391H27.8652V33.5524H47.6321V47.3271H31.5806V36.7713L43.9167 36.8003V44.1372H35.2959V39.9323H40.2014" stroke="#3D95D1" stroke-width="2" stroke-miterlimit="10"/>
<path d="M97.0056 50.6913L79.9382 33.8136" stroke="#0E2951" stroke-width="4" stroke-miterlimit="10"/>
<path d="M79.9382 50.6913L97.0056 33.8136" stroke="#0E2951" stroke-width="4" stroke-miterlimit="10"/>
<path d="M59.3589 71.1067H55.3533V67.5688L59.3589 67.5398V71.1067Z" fill="#B9D5FD"/>
<path d="M64.8738 66.235L60.8682 66.206V62.6681L64.8738 62.697V66.235Z" fill="#B9D5FD"/>
<path d="M70.3887 61.3341L66.3831 61.3631V57.7962H70.3887V61.3341Z" fill="#B9D5FD"/>
<path d="M19.1576 48.081H0.0873758L0.0583496 31.1453L19.1576 31.2323V48.081Z" fill="#053866"/>
<path d="M14.049 43.5281H0.0873758L0.0583496 31.1453L14.049 31.2033V43.5281Z" fill="#709FDC"/>
<path d="M12.6258 75.6016H0.0864258V64.5238L12.6258 64.4948V75.6016Z" fill="#3D95D1"/>
<path d="M66.9057 3.1611L23.3084 2.78411L0.0583496 31.1456L43.975 31.2036L66.9057 3.1611Z" fill="#165B93"/>
<path d="M123.245 1.53697L123.623 0.60899L123.855 0" fill="#34DD17"/>
<path d="M123.971 3.30579L76.4263 3.1608L55.3533 31.2903L100.373 31.1743L123.971 3.30579Z" fill="#165B93"/>
<path d="M112.216 9.48291L100.373 31.1746L0.0583496 31.1456L11.843 9.27991L112.216 9.48291Z" fill="#9CCEF7"/>
<path d="M114.073 7.48203L123.971 3.3061L23.3077 2.78411L13.4678 7.13404L114.073 7.48203Z" fill="#9CCEF7"/>
<path d="M100.568 53.1429H0V97.7143H100.568V53.1429Z" fill="#A8D2FC"/>
</g>
<defs>
<clipPath id="clip0">
<rect width="124" height="120" fill="white"/>
</clipPath>
</defs>
</svg>

<svg width="124" height="120" fill="none" xmlns="http://www.w3.org/2000/svg"><g clip-path="url(#clip0)"><path d="M23.51 2.958l100.461.348-1.016 88.448-99.647.174.203-88.97z" fill="#102E5B"/><path d="M23.685 2.9L.058 31.145 0 119.275l23.685-27.579V2.9z" fill="#0A2D49"/><path d="M100.286 119.855L0 119.971l.058-88.826 99.705-.174.523 88.884z" fill="#102E5B"/><path d="M100.285 119.855l23.686-28.304V3.306l-23.599 27.868-.087 88.681z" fill="#0A2D49"/><path d="M100.372 31.174l23.599-27.868v88.912l-23.686 27.637.087-88.68z" fill="#053866"/><path d="M100.372 31.174l23.599-27.868v88.883l-23.686 27.666.087-88.68z" fill="#053866"/><path d="M118.078 10.266l5.892-6.96V25.78l-5.892 6.96V10.266z" fill="#053866"/><path d="M120.111 22.678c-1.249-2.697-1.858-6.206-1.858-12.412l.726-.9c0 5.482.667 9.223 1.741 11.514.9 1.885 2.061 2.175 3.251.725l-.029 2.378c-.609.725-1.016.899-1.567.899-.755 0-1.626-.841-2.264-2.204z" fill="#B9D5FD"/><path d="M112.187 17.226l5.892-6.96V32.74l-5.892 6.96V17.225z" fill="#0E2951"/><path d="M106.294 24.186l5.893-6.96V39.7l-5.893 6.931V24.186z" fill="#709FDC"/><path d="M100.372 31.174l5.921-6.988V46.63l-5.892 6.873-.029-22.33z" fill="#55A2E0"/><path d="M118.078 32.74l5.892-6.96v22.127l-5.892 6.96V32.74z" fill="#B9D5FD"/><path d="M112.187 39.7l5.892-6.96v22.127l-5.892 6.96V39.7z" fill="#274684"/><path d="M106.294 46.631l5.893-6.93v22.126l-5.893 6.96V46.63z" fill="#3D95D1"/><path d="M100.401 53.504l5.893-6.873v22.156l-5.893 6.844V53.504zm11.786 8.323l5.892-6.96v22.156l-5.892 6.96V61.827z" fill="#B9D5FD"/><path d="M106.294 68.787l5.893-6.96v22.156l-5.893 6.96V68.786z" fill="#0E2951"/><path d="M100.401 75.63l5.893-6.843v22.155l-5.777 6.844-.116-22.155z" fill="#709FDC"/><path d="M118.078 77.023l5.892-6.99V92.19l-5.892 6.96V77.023z" fill="#6780B3"/><path d="M112.187 83.983l5.892-6.96v22.126l-5.892 6.96V83.983z" fill="#053866"/><path d="M106.294 90.943l5.893-6.96v22.126l-5.893 6.96V90.943z" fill="#B9D5FD"/><path d="M100.518 97.787l5.776-6.844v22.126l-6.009 6.786.233-22.069zm20.55-79.082c-.986-2.088-1.509-4.988-1.509-9.744l.726-.9c0 3.858.435 6.642 1.306 8.44.522 1.073 1.567 1.42 2.409.406v2.668c-.464.55-.755.725-1.19.725-.668 0-1.248-.551-1.742-1.595z" fill="#3D95D1"/><path d="M122.026 14.065c-.668-1.421-1.045-3.625-1.045-6.844l.726-.9c0 2.35.116 3.452.58 4.873.436 1.334 1.19 1.479 1.713.899v2.668c-.32.377-.494.464-.784.464-.464-.03-.871-.435-1.19-1.16z" fill="#3376B3"/><path d="M122.868 9.396c-.406-.87-.609-2.146-.609-3.973l.842-.899c-.146 1.334-.146 2.204.145 2.668a.536.536 0 00.725 0V9.86c-.174.232-.203.232-.377.232-.261-.03-.522-.261-.726-.696z" fill="#709FDC"/><path d="M100.518 91.929l4.15-4.96V54.375l-4.15 4.901v-3.074l5.021-5.655v38.28l-4.992 5.858-.029-2.755z" fill="#274684"/><path d="M100.518 91.928l4.15-4.959V70.18l.871-.87v19.517l-5.021 6.205v-3.103z" fill="#0E2951"/><path d="M100.46 86.65l2.815-3.306V60.928l-2.757 3.074V61.13l3.599-4.031v27.607l-3.57 4.234-.087-2.29z" fill="#274684"/><path d="M100.518 80.938l1.277-1.74v-10.44l-1.277 1.566V67.22l2.148-2.291v16.123l-2.032 2.407-.116-2.522z" fill="#274684"/><path d="M100.46 80.677l1.277-1.306V73.66l.842-.9v8.469l-2.061 2.378-.058-2.93z" fill="#0E2951"/><path d="M100.518 86.448l2.757-3.103V71.86l.842-.9v14.181l-3.599 4.409v-3.103z" fill="#0E2951"/><path d="M119.501 80.647l4.47-5.277v16.82l-4.47 5.306V80.647z" fill="#053866"/><path d="M121.01 84.62l2.961-3.508v11.077l-2.961 3.48V84.621z" fill="#709FDC"/><path d="M110.009 20.184l2.148 11.397-3.715 12.411-2.119-11.396 3.686-12.412z" fill="#0E2951"/><path d="M109.632 26.012l1.103 5.83-1.915 6.321-1.074-5.8 1.886-6.35z" fill="#6780B3"/><path d="M106.294 95.35l5.893-6.96v17.719l-5.893 6.96V95.35z" fill="#3D95D1"/><path d="M106.294 100.222l5.893-6.96v12.847l-5.893 6.96v-12.847z" fill="#6780B3"/><path d="M106.294 105.123l5.893-6.989v7.975l-5.893 6.96v-7.946z" fill="#053866"/><path d="M106.294 109.096l5.893-6.96v3.973l-5.893 6.96v-3.973zm6.415-51.996l4.847-6.728-4.847-5.307 4.847-6.728-4.847 18.763z" fill="#0E2951"/><path d="M123.245 26.65l.726-.87v22.127l-.726.899V26.65zm-1.131 1.335l.725-.87V49.24l-.725.9V27.984zm-3.717 4.436l.726-.898v22.155l-.726.87V32.421zm1.249-1.595l.842-.899v22.127l-.842.87V30.826zm1.335-1.507l.697-.9v22.156l-.697.87V29.32z" fill="#55A2E0"/><path d="M118.078 54.867l5.892-6.96v22.127l-5.892 6.989V54.867z" fill="#0E2951"/><path d="M118.078 65.945l2.932-3.48v11.078l-2.932 3.48V65.944zm2.932-14.558l2.961-3.48v11.078l-2.961 3.48V51.387z" fill="#55A2E0"/><path d="M113.608 87.665l3.019-3.596v11.397l-3.019 3.596v-8.99l2.468-2.9v6.873l-1.887 2.233v-4.814l1.306-1.566v2.755l-.755.9" stroke="#3D95D1" stroke-miterlimit="10"/><path d="M104.523 113.069l-3.396-15.254 1.248-1.392 3.571 15.341-1.423 1.305z" fill="#003A79"/><path d="M102.579 114.838l-1.799 2.233 2.96-22.04 1.8-1.768-2.961 21.575z" fill="#003A79"/><path d="M110.068 68.758l.928-1.102v3.538l-.928 1.102v-3.538zm-1.307 6.38l.929-1.102v3.538l-.929 1.13v-3.566zm-1.306 6.438l.958-1.131v3.566l-.958 1.102v-3.537z" fill="#B9D5FD"/><path d="M100.373 31.174L.058 31.145l.058 88.71h100.17l.087-88.68z" fill="#054270"/><path d="M100.286 119.855l-100.199.087-.029-88.797 100.315.03-.087 88.68z" fill="#053866"/><path d="M25.223 97.728l-25.137.03V75.601l25.137-.03v22.156z" fill="#F4F9FF"/><path d="M50.331 97.728H25.224V75.573l25.107-.03v22.185z" fill="#274684"/><path d="M75.41 97.7l-25.079.028V75.544l25.079-.03V97.7z" fill="#3D95D1"/><path d="M100.517 97.786L75.41 97.7V75.515l25.107.087v22.184zM50.331 75.544l-25.107.029V53.388l25.107-.029v22.185z" fill="#B9D5FD"/><path d="M75.41 75.515l-25.079.029V53.359H75.41v22.156z" fill="#0E2951"/><path d="M100.517 75.602l-25.107-.087V53.359l25.107.058v22.185z" fill="#709FDC"/><path d="M50.331 119.913H25.224V97.728H50.33v22.185z" fill="#0E2951"/><path d="M75.542 119.884l-25.21.029V97.728l25.21-.029v22.185z" fill="#709FDC"/><path d="M100.286 119.855l-24.702.029V97.699l24.934.087-.232 22.069zM25.224 53.388l-25.137.029-.029-22.272 25.166.087v22.156z" fill="#6780B3"/><path d="M50.331 53.36l-25.107.028V31.233l25.107-.03V53.36z" fill="#053866"/><path d="M75.41 53.36H50.33V31.202l25.079-.029V53.36z" fill="#B9D5FD"/><path d="M100.517 53.417L75.41 53.36V31.174h24.962l.145 22.243z" fill="#3D95D1"/><path d="M78.632 94.683V56.375l21.654-.029-.407 2.842H82.26v32.654l18.258.087v3.102l-21.886-.348z" fill="#274684"/><path d="M78.4 56.375l22.118-.203v3.103l-18.258-.087v16.356h-3.628l-.232-19.17z" fill="#0E2951"/><path d="M84.67 89.55V62.118l15.848-.986v2.726l-12.25.203v22.33l12.25.058v3.103H84.67z" fill="#274684"/><path d="M91.2 83.576V67.453l9.26-.058-.58 2.9-5.08-.03v10.47l5.718-.058v2.928l-9.317-.029z" fill="#274684"/><path d="M91.2 67.453l9.318-.232v3.103l-5.718-.058v5.365l-3.6-.058v-8.12z" fill="#0E2951"/><path d="M84.67 61.247l15.848-.116v2.871l-12.25.058v11.455H84.67V61.247z" fill="#0E2951"/><path d="M12.627 42.31l-12.54.03-.029-11.195 12.569.087V42.31z" fill="#FF8098"/><path d="M59.533 119.797l-9.114-13.92 15.761-8.061 9.143 13.919-15.79 8.062z" fill="#0E2951"/><path d="M61.159 114.432l-4.644-7.134 8.069-4.118 4.615 7.134-8.04 4.118z" fill="#6780B3"/><path d="M75.41 48.922l-25.079.03V31.203l25.079-.03v17.748z" fill="#3D95D1"/><path d="M75.41 44.05l-25.079.03V31.202l25.079-.029V44.05z" fill="#6780B3"/><path d="M75.41 39.178H50.33v-7.974l25.079-.03v8.004z" fill="#053866"/><path d="M75.41 35.176H50.33v-3.973l25.079-.029v4.002zM48.822 79.169l-22.089.029 22.09 14.035-22.09.03" fill="#0E2951"/><path d="M.058 75.37l3.6-.116v22.62l-3.6.115V75.37zm4.732.29l3.627-.116v22.155l-3.628.145V75.66zm15.18-.058l3.6-.145-.059 22.242-3.657.116.116-22.213zm-5.138.028l3.658-.115v22.184l-3.658.116V75.631zm-5.022.03l3.658-.145v22.184l-3.657.145V75.66z" fill="#709FDC"/><path d="M25.223 75.573l-25.137.029V53.417l25.137-.029v22.185z" fill="#0E2951"/><path d="M25.223 119.913l-25.137.029V97.757l25.137-.029v22.185z" fill="#053866"/><path d="M25.224 64.466l-12.598.03v-11.08l12.598-.029v11.078z" fill="#3D95D1"/><path d="M.058 101.092v-2.204c13.381 0 24.73 5.945 24.73 21.054l-3.018-.058c0-10.179-9.637-18.792-21.712-18.792z" fill="#B9D5FD"/><path d="M0 105.877v-2.668c10.072 0 18.722 5.974 18.722 16.617l-3.628.116c0-7.772-6.27-14.065-15.094-14.065z" fill="#3D95D1"/><path d="M.058 110.865l.058-2.552c6.85 0 11.988 4.988 11.988 11.629L8.737 120c-.029-4.814-3.338-9.135-8.679-9.135z" fill="#3376B3"/><path d="M.058 116.201l.058-2.813c3.745 0 6.56 2.726 5.95 6.438l-3.018-.058c0-2.117-.639-3.596-2.99-3.567z" fill="#709FDC"/><path d="M47.632 51.04H27.865V33.551h19.767v13.775H31.581V36.771l12.336.03v7.336h-8.621v-4.205H40.2" stroke="#3D95D1" stroke-width="2" stroke-miterlimit="10"/><path d="M97.006 50.691L79.938 33.814m0 16.877l17.068-16.877" stroke="#0E2951" stroke-width="4" stroke-miterlimit="10"/><path d="M59.359 71.107h-4.006v-3.538l4.006-.03v3.568zm5.515-4.872l-4.006-.029v-3.538l4.006.029v3.538zm5.515-4.901l-4.006.03v-3.568h4.006v3.538z" fill="#B9D5FD"/><path d="M19.158 48.081H.088l-.03-16.936 19.1.087v16.849z" fill="#053866"/><path d="M14.049 43.528H.087L.058 31.145l13.991.058v12.325z" fill="#709FDC"/><path d="M12.626 75.602H.086V64.524l12.54-.03v11.108z" fill="#3D95D1"/><path d="M66.906 3.161l-43.598-.377L.058 31.146l43.917.058L66.905 3.16z" fill="#165B93"/><path d="M123.245 1.537l.378-.928.232-.609" fill="#34DD17"/><path d="M123.971 3.306L76.426 3.16 55.353 31.29l45.02-.117 23.598-27.868z" fill="#165B93"/><path d="M112.216 9.483l-11.843 21.692-100.315-.03L11.843 9.28l100.373.203zm1.857-2.001l9.898-4.176-100.663-.522-9.84 4.35 100.605.348z" fill="#9CCEF7"/><path d="M100.568 53.143H0v44.571h100.568V53.143z" fill="#A8D2FC"/></g><defs><clipPath id="clip0"><path fill="#fff" d="M0 0h124v120H0z"/></clipPath></defs></svg>
